X:533
T:Merry Lads and Bonny Lasses
R:Reel
B:The Athole Collection
M:C|
L:1/8
K:F
C|AFEF CFA,F|B,DG,A, B,CDB|AFEF CFA,e|fdcf AFF:|
f|cf f2 efgb|af f2 GABd|cf f2 efga|bagf efgb|afeg fBAc|BAGF EFGB|
AfBf cfeg|fdcf AFF||

